src/lib/packages/icons/src/assets/filled/home.svg

<svg width="24" height="24" viewBox="0 0 24 24" fill="none" xmlns="http://www.w3.org/2000/svg">
<path fill-rule="evenodd" clip-rule="evenodd" d="M18 21H14.8C14.634 21 14.5 20.866 14.5 20.7V16.5C14.5 15.119 13.381 14 12 14C10.619 14 9.5 15.119 9.5 16.5V20.7C9.5 20.866 9.36595 21 9.19995 21H6C4 21 3 20 3 18V11.651C3 9.65302 3.52305 9.34608 4.43005 8.58608L10.394 3.58498C11.323 2.80598 12.6781 2.80598 13.6071 3.58498L19.571 8.58608C20.477 9.34608 21.001 9.65302 21.001 11.651V18C21 20 20 21 18 21Z" fill="currentColor"/>
</svg>

<svg xmlns="http://www.w3.org/2000/svg" width="24" height="24" fill="none"><path fill="currentColor" fill-rule="evenodd" d="M18 21h-3.2a.3.3 0 0 1-.3-.3v-4.2a2.5 2.5 0 1 0-5 0v4.2a.3.3 0 0 1-.3.3H6c-2 0-3-1-3-3v-6.349c0-1.998.523-2.305 1.43-3.065l5.964-5.001a2.5 2.5 0 0 1 3.213 0l5.964 5.001c.906.76 1.43 1.067 1.43 3.065V18C21 20 20 21 18 21Z" clip-rule="evenodd"/></svg>
